X: 33168
T: Prior's Engagement, The
R: reel
M: 4/4
K: Eminor
Bc|"Em"BEGB "C"cdec|"G"BAGB "D"A2 Bc|"Em"BEGB "C"cdec|"Bm"BAGF "Em"E2
Bc|"Em"BEGB "C"cdec|"G"BcdB "D"A2 Bc|"Em"BEGB "C"cdec|"Bm"BAGF "Em"E2
Bc|"Em"Beee "D"gf"A"eA|"Em"Beee "Bm"d2 Bc|
"Em"Beee "D"gf"Am"eA|"Bm"BAGF "Em"E2 Bc|"Em"Beee "D"gf"A"eA|"Em"Beee "Bm"d2 Bc|
"Em"Beee "D"gf"Am"eA|"Bm"BAGF "Em"E2
	

